icons/brackets-fill.svg

<svg xmlns="http://www.w3.org/2000/svg" viewBox="0 0 24 24">
    <g>
        <path fill="none" d="M0 0h24v24H0z"/>
        <path d="M9 3v2H6v14h3v2H4V3h5zm6 0h5v18h-5v-2h3V5h-3V3z"/>
    </g>
</svg>

<svg viewBox="0 0 24 24" fill="currentColor" xmlns="http://www.w3.org/2000/svg">
    <path d="M9 3V5H6V19H9V21H4V3H9ZM15 3H20V21H15V19H18V5H15V3Z"/>
</svg>
